icons/polygon/polygon-original.svg

<?xml version="1.0" encoding="UTF-8"?>
<svg xmlns="http://www.w3.org/2000/svg" xmlns:xlink="http://www.w3.org/1999/xlink" width="128px" height="128px" viewBox="0 0 128 128" version="1.1">
<g id="surface1">
<path style=" stroke:none;fill-rule:nonzero;fill:rgb(56.078431%,35.294118%,90.980392%);fill-opacity:1;" d="M 64 0 C 99.347656 0 128 28.652344 128 64 C 128 99.347656 99.347656 128 64 128 C 28.652344 128 0 99.347656 0 64 C 0 28.652344 28.652344 0 64 0 Z M 64 0 "/>
<path style=" stroke:none;fill-rule:nonzero;fill:rgb(100%,100%,100%);fill-opacity:1;" d="M 85.898438 49.242188 C 84.207031 48.339844 82.171875 48.339844 80.480469 49.242188 L 68.265625 56.464844 L 59.734375 61.207031 L 47.519531 68.433594 C 45.828125 69.335938 43.792969 69.335938 42.101562 68.433594 L 32.394531 62.785156 C 30.769531 61.847656 29.746094 60.140625 29.683594 58.265625 L 29.683594 46.988281 C 29.648438 45.085938 30.703125 43.332031 32.394531 42.46875 L 42.101562 37.050781 C 43.792969 36.144531 45.828125 36.144531 47.519531 37.050781 L 57.226562 42.46875 C 58.851562 43.40625 59.875 45.113281 59.9375 46.988281 L 59.9375 54.207031 L 68.265625 49.242188 L 68.265625 42.246094 C 68.3125 40.355469 67.277344 38.601562 65.601562 37.726562 L 47.742188 27.34375 C 46.050781 26.4375 44.019531 26.4375 42.324219 27.34375 L 24.265625 37.726562 C 22.417969 38.445312 21.234375 40.265625 21.332031 42.246094 L 21.332031 63.238281 C 21.304688 65.128906 22.355469 66.875 24.042969 67.734375 L 42.101562 78.140625 C 43.792969 79.042969 45.828125 79.042969 47.519531 78.140625 L 59.734375 71.140625 L 68.085938 66.175781 L 80.257812 59.199219 C 81.949219 58.296875 83.980469 58.296875 85.675781 59.199219 L 95.382812 64.617188 C 97.003906 65.554688 98.03125 67.261719 98.089844 69.136719 L 98.089844 80.199219 C 98.125 82.097656 97.074219 83.851562 95.382812 84.714844 L 85.675781 90.355469 C 83.980469 91.261719 81.949219 91.261719 80.257812 90.355469 L 70.550781 84.9375 C 68.925781 84.003906 67.902344 82.292969 67.839844 80.421875 L 67.839844 73.171875 L 59.734375 77.910156 L 59.734375 85.128906 C 59.699219 87.03125 60.75 88.785156 62.441406 89.648438 L 80.5 100.03125 C 82.195312 100.9375 84.226562 100.9375 85.921875 100.03125 L 103.980469 89.648438 C 105.59375 88.707031 106.609375 87.003906 106.667969 85.136719 L 106.667969 64.136719 C 106.703125 62.238281 105.652344 60.484375 103.957031 59.621094 Z M 85.898438 49.242188 "/>
</g>
</svg>

<svg xmlns="http://www.w3.org/2000/svg" viewBox="0 0 128 128"><path d="M64 0c35.348 0 64 28.652 64 64s-28.652 64-64 64S0 99.348 0 64 28.652 0 64 0zm0 0" fill="#8f5ae8"/><path d="M85.898 49.242a5.76 5.76 0 00-5.418 0l-12.214 7.223-8.532 4.742-12.214 7.227a5.76 5.76 0 01-5.418 0l-9.707-5.649a5.423 5.423 0 01-2.711-4.52V46.989a4.972 4.972 0 012.71-4.52l9.708-5.417a5.738 5.738 0 015.418 0l9.707 5.418a5.423 5.423 0 012.71 4.52v7.218l8.329-4.965v-6.996a4.963 4.963 0 00-2.664-4.52l-17.86-10.382a5.738 5.738 0 00-5.418 0L24.266 37.727a4.608 4.608 0 00-2.934 4.52v20.991a4.967 4.967 0 002.711 4.496l18.059 10.407a5.76 5.76 0 005.418 0l12.214-7 8.352-4.965 12.172-6.977a5.76 5.76 0 015.418 0l9.707 5.418a5.419 5.419 0 012.707 4.52v11.062a4.967 4.967 0 01-2.707 4.516l-9.707 5.64a5.738 5.738 0 01-5.418 0l-9.707-5.418a5.416 5.416 0 01-2.711-4.515v-7.25l-8.106 4.738v7.219a4.969 4.969 0 002.707 4.52L80.5 100.03a5.746 5.746 0 005.422 0l18.058-10.383a5.42 5.42 0 002.688-4.511v-21a4.964 4.964 0 00-2.711-4.516zm0 0" fill="#fff"/></svg>
